svg/transport/ebike_line.svg

<?xml version="1.0" encoding="UTF-8"?>
<svg width="24px" height="24px" viewBox="0 0 24 24" version="1.1" xmlns="http://www.w3.org/2000/svg" xmlns:xlink="http://www.w3.org/1999/xlink">
    <title>ebike_line</title>
    <g id="页面-1" stroke="none" stroke-width="1" fill="none" fill-rule="evenodd">
        <g id="ebike_line">
             <path d="M24,0 L24,24 L0,24 L0,0 L24,0 Z M12.5934901,23.257841 L12.5819402,23.2595131 L12.5108777,23.2950439 L12.4918791,23.2987469 L12.4918791,23.2987469 L12.4767152,23.2950439 L12.4056548,23.2595131 C12.3958229,23.2563662 12.3870493,23.2590235 12.3821421,23.2649074 L12.3780323,23.275831 L12.360941,23.7031097 L12.3658947,23.7234994 L12.3769048,23.7357139 L12.4804777,23.8096931 L12.4953491,23.8136134 L12.4953491,23.8136134 L12.5071152,23.8096931 L12.6106902,23.7357139 L12.6232938,23.7196733 L12.6232938,23.7196733 L12.6266527,23.7031097 L12.609561,23.275831 C12.6075724,23.2657013 12.6010112,23.2592993 12.5934901,23.257841 L12.5934901,23.257841 Z M12.8583906,23.1452862 L12.8445485,23.1473072 L12.6598443,23.2396597 L12.6498822,23.2499052 L12.6498822,23.2499052 L12.6471943,23.2611114 L12.6650943,23.6906389 L12.6699349,23.7034178 L12.6699349,23.7034178 L12.678386,23.7104931 L12.8793402,23.8032389 C12.8914285,23.8068999 12.9022333,23.8029875 12.9078286,23.7952264 L12.9118235,23.7811639 L12.8776777,23.1665331 C12.8752882,23.1545897 12.8674102,23.1470016 12.8583906,23.1452862 L12.8583906,23.1452862 Z M12.1430473,23.1473072 C12.1332178,23.1423925 12.1221763,23.1452606 12.1156365,23.1525954 L12.1099173,23.1665331 L12.0757714,23.7811639 C12.0751323,23.7926639 12.0828099,23.8018602 12.0926481,23.8045676 L12.108256,23.8032389 L12.3092106,23.7104931 L12.3186497,23.7024347 L12.3186497,23.7024347 L12.3225043,23.6906389 L12.340401,23.2611114 L12.337245,23.2485176 L12.337245,23.2485176 L12.3277531,23.2396597 L12.1430473,23.1473072 Z" id="MingCute" fill-rule="nonzero"></path>
            <path d="M14,3 C15.1046,3 16,3.89543 16,5 L19,5 C20.1046,5 21,5.89543 21,7 L21,9 C21,9.93531 20.358,10.7207 19.4906,10.9394 L21.6319,15.9359 C21.8957,16.4631 22,16.9208 22,17.5 C22,19.433 20.433,21 18.5,21 C17.1038,21 15.8985,20.1825 15.3368,19 L9.66318,19 C9.10145,20.1825 7.8962,21 6.5,21 C4.73655,21 3.2777,19.6958 3.03536,17.9994 L3,18 L3,18 C2.44772,18 2,17.5523 2,17 L2,9 C2,7.89543 2.89543,7 4,7 L8,7 C9.10457,7 10,7.89543 10,9 L10,11 C10,12.1046 10.8954,13 12,13 C13.1046,13 14,12.1046 14,11 L14,5 L12,5 C11.4477,5 11,4.55228 11,4 C11,3.44772 11.4477,3 12,3 L14,3 Z M6.5,16 C5.67157,16 5,16.6716 5,17.5 C5,18.3284 5.67157,19 6.5,19 C7.32843,19 8,18.3284 8,17.5 C8,16.6716 7.32843,16 6.5,16 Z M18.5,16 C17.6716,16 17,16.6716 17,17.5 C17,18.3284 17.6716,19 18.5,19 C19.3284,19 20,18.3284 20,17.5 C20,16.6886 19.3146,16 18.5,16 Z M17.3406,11 L16,11 C16,13.2091 14.2091,15 12,15 C10.5194,15 9.22675,14.1956 8.53513,13 L4,13 L4,15.0505 C4.63526,14.4022 5.52066,14 6.5,14 C8.26324,14 9.72194,15.3039 9.96456,17 L15.0354,17 C15.2856,15.2511 16.865,13.9393 18.6273,14.0023 L17.3406,11 Z M8,9 L4,9 L4,11 L8,11 L8,9 Z M19,7 L16,7 L16,9 L19,9 L19,7 Z" id="形状" fill="#09244B" fill-rule="nonzero"></path>
        </g>
    </g>
</svg>

<svg xmlns="http://www.w3.org/2000/svg" width="24" height="24"><g fill="none" fill-rule="evenodd"><path d="M24 0v24H0V0h24ZM12.593 23.258l-.011.002-.071.035-.02.004-.014-.004-.071-.035c-.01-.004-.019-.001-.024.005l-.004.01-.017.428.005.02.01.013.104.074.015.004.012-.004.104-.074.012-.016.004-.017-.017-.427c-.002-.01-.009-.017-.017-.018Zm.265-.113-.013.002-.185.093-.01.01-.003.011.018.43.005.012.008.007.201.093c.012.004.023 0 .029-.008l.004-.014-.034-.614c-.003-.012-.01-.02-.02-.022Zm-.715.002a.023.023 0 0 0-.027.006l-.006.014-.034.614c0 .012.007.02.017.024l.015-.002.201-.093.01-.008.004-.011.017-.43-.003-.012-.01-.01-.184-.092Z"/><path fill="#09244B" fill-rule="nonzero" d="M14 3a2 2 0 0 1 2 2h3a2 2 0 0 1 2 2v2a2 2 0 0 1-1.51 1.94l2.142 4.996c.264.527.368.985.368 1.564a3.5 3.5 0 0 1-6.663 1.5H9.663a3.5 3.5 0 0 1-6.628-1H3a1 1 0 0 1-1-1V9a2 2 0 0 1 2-2h4a2 2 0 0 1 2 2v2a2 2 0 1 0 4 0V5h-2a1 1 0 1 1 0-2h2ZM6.5 16a1.5 1.5 0 1 0 0 3 1.5 1.5 0 0 0 0-3Zm12 0a1.5 1.5 0 1 0 1.5 1.5c0-.811-.685-1.5-1.5-1.5Zm-1.16-5H16a4 4 0 0 1-7.465 2H4v2.05A3.5 3.5 0 0 1 9.965 17h5.07c.25-1.749 1.83-3.06 3.592-2.998L17.341 11ZM8 9H4v2h4V9Zm11-2h-3v2h3V7Z"/></g></svg>
